!!!COM: Haydn, Franz Joseph
!!!OTL: String Quartet in E-flat major
!!!OPS: Opus 1
!!!ONM: No. 2
!!!OMD: Mneuetto II
!!!OMV: 4
!!!SCT: H III:2
!!!SCA: Thematisch-bibliographisches Werkevererzeichnis (A. van Hoboken)
!!!YOR: Bremner Edition, 1772
!!!ENC: Frances Bennion
!!!CDT: 1732/3/31/-1809/5/31/
!!!CNT: Oesterreich
!!!YEC: Copyright (c) 1994, 2000 Center for Computer Assisted Research in the Humanities
!!!YEM: Rights to all derivative editions reserved.
!!!YEM: Refer to licensing agreement for further details.
!!!YEN: United States of America
**kern	**kern	**kern	**kern
*k[b-e-a-]	*k[b-e-a-]	*k[b-e-a-]	*k[b-e-a-]
*E-:	*E-:	*E-:	*E-:
*clefF4	*clefC3	*clefF	*clefF
*M3/4	*M3/4	*M3/4	*M3/4
4E-	4e-	2e-	2e-
4G	4g	.	.
4B-	4b-	12a-	12a-
.	.	12f	12f
.	.	12d	12d
=2	=2	=2	=2
4E-	4e-	4e-	4e-
4r	4G	2r	4B-
4BB-	4F	.	4A-
=3	=3	=3	=3
4E-	4E-	2r	8G
.	.	.	8B-
4r	4r	.	8e-
.	.	.	8g
4G	4g	4B-	8b-
.	.	.	8ee-
=4	=4	=4	=4
4F	4f	4c	4b-
4BB-	4B-	4d	4a-
4E-	4e-	4e-	4g
=5	=5	=5	=5
4r	4r	4r	4.ee-
4G	4g	4e-	.
.	.	.	16ff
.	.	.	16gg
4G	4g	4e-	8b-
.	.	.	8r
=6	=6	=6	=6
4r	4r	4r	4.cc
4A-	4a-	4e-	.
.	.	.	16dd
.	.	.	16ee-
4A-	4a-	4e-	8f
.	.	.	8r
=7	=7	=7	=7
4r	4r	4r	8.g
.	.	.	32a-
.	.	.	32b-
4B-	4G	4e-	4e-
4BB-	4F	4d	4d
=8	=8	=8	=8
4E-	2E-	2e-	2e-
4BB-	.	.	.
4EE-	4r	4r	4r
=9	=9	=9	=9
4r	4r	4r	4.bb-
4B-	4b-	4dd-	.
.	.	.	16ccc
.	.	.	16ddd-
4B-	4b-	4dd-	4ee
=10	=10	=10	=10
4A-	4a-	4cc	8ff
.	.	.	8cc
8r	8r	8r	2cc
8A-	8a-	8cc	.
8G	8g	8b-	.
8F	8f	8a-	.
=11	=11	=11	=11
4E	4e	4g	8dd-
.	.	.	8cc
4r	4r	4r	8gg
.	.	.	8ee
4E	4e	4c	8cc
.	.	.	8b-
=12	=12	=12	=12
4F	4f	4f	12a-
.	.	.	12g
.	.	.	12f
4A-	4a-	2r	2f
4c	4cc	.	.
=13	=13	=13	=13
4F	4f	4r	4.aa-
2r	2r	4f	.
.	.	.	16bb-
.	.	.	16ccc
.	.	4a-	4ee-
=14	=14	=14	=14
2.r	2.r	4b-	4.dd
.	.	4B-	.
.	.	.	16ee-
.	.	.	16ff
.	.	4d	4a-
=15	=15	=15	=15
2.r	2.r	4e-	8g
.	.	.	8b-
.	.	4A-	12cc
.	.	.	12b-
.	.	.	12a-
.	.	4A	12g
.	.	.	12f
.	.	.	12e-
=16	=16	=16	=16
4r	4r	4B-	2d
8B-	8b-	8b-	.
8A-	8a-	8a-	.
8G	8g	8g	4r
8F	8f	8f	.
=17	=17	=17	=17
4E-	4e-	4e-	2.r
4r	2r	4g	.
4B-	.	12a-	.
.	.	12f	.
.	.	12d	.
=18	=18	=18	=18
4E-	2.B-	4e-	4ee-
4r	.	4B-	4gg
4BB-	.	4A-	12aa-
.	.	.	12ff
.	.	.	12dd
=19	=19	=19	=19
4E-	2.B-	4G	4ee-
4r	.	4g	4b-
4BB-	.	12a-	4a-
.	.	12f	.
.	.	12d	.
=20	=20	=20	=20
4E-	2.B-	4e-	4g
4r	.	4B-	4gg
4B-	.	4A-	12aa-
.	.	.	12ff
.	.	.	12dd
=21	=21	=21	=21
4E-	4B-	4G	8ee-
.	.	.	8gg
4r	4r	4r	8ff
.	.	.	8ee-
4G	4g	4B-	8dd
.	.	.	8cc
=22	=22	=22	=22
4F	4f	4c	4b-
4BB-	4B-	4d	4a-
4E-	4e-	4e-	4g
=23	=23	=23	=23
4r	4r	4r	4.ee-
4G	4g	4e-	.
.	.	.	16ff
.	.	.	16gg
4G	4g	4e-	4b-
=24	=24	=24	=24
4r	4r	4r	4.cc
4A-	4a-	4e-	.
.	.	.	16dd
.	.	.	16ee-
4A-	4a-	4e-	4f
=25	=25	=25	=25
4r	4r	4r	8.g
.	.	.	32a-
.	.	.	32b-
4B-	4G	4e-	4e-
4BB-	4F	4d	4d
=26	=26	=26	=26
4E-	2E-	2e-	2e-
4BB-	.	.	.
4EE-	4r	4r	4r
=27	=27	=27	=27
4c	4cc	4ee-	2gg
4c	4cc	4ee-	.
4c	4cc	4ee-	8aa-
.	.	.	8gg
=28	=28	=28	=28
4c	4a	4dd	8gg
.	.	.	8ff#
4c	4a	4dd	2ff#
4c	4a	4dd	.
=29	=29	=29	=29
4B	4g	4dd	4ff
4B	4g	4dd	8ddd
.	.	.	8bb
4B	4g	4dd	8gg
.	.	.	8ff
=30	=30	=30	=30
4c	4g	8dd	8ff
.	.	8cc	8ee-
4C	4g	4cc	4ee-
4r	4r	4r	4r
=31	=31	=31	=31
2.r	4f	4dd	2.r
.	4f	4dd	.
.	4f	4dd	.
=32	=32	=32	=32
2F	2d	2b	4.aa-
.	.	.	8b
4E-	4e-	4g	4cc
=33	=33	=33	=33
2.r	4f	4dd	2.r
.	4f	4dd	.
.	4f	4dd	.
=34	=34	=34	=34
2F	2d	2b	4.aa-
.	.	.	8b
4E-	4e-	4g	4cc
=35	=35	=35	=35
4r	4r	4r	8.dd
.	.	.	16ee-
4G	4g	4e-	4cc
4GG	4G	4d	4b
=36	=36	=36	=36
4C	4c	2c	2cc
4GG	4G	.	.
4C	4c	4r	4r
=37	=37	=37	=37
4r	4r	8.e-	2r
.	.	16g	.
4r	4r	4e-	.
4GG	4G	4G	4G
=38	=38	=38	=38
4AA-	4A-	4A-	4A-
2r	2r	4cc	4a-
.	.	4cc	4a-
=39	=39	=39	=39
4r	4r	8.f	2r
.	.	16a	.
4r	4r	4f	.
4AA	4A	4A	4A
=40	=40	=40	=40
4BB-	4B-	4B-	4B-
2r	2r	4dd	4b-
.	.	4dd	4b-
=41	=41	=41	=41
4BB-	2.dd	4r	4r
2r	.	4a-	4ff
.	.	4a-	4ff
=42	=42	=42	=42
4BB-	2.ee-	4r	4r
2r	.	4g	4ee-
.	.	4g	4ee-
=43	=43	=43	=43
4BB-	2.a-	4r	4r
2r	.	4d	4f
.	.	4d	4f
=44	=44	=44	=44
4BB-	2.g	4r	4r
2r	.	4e-	4g
.	.	4e-	4g
=45	=45	=45	=45
4AA-	8.f	4r	8.f
.	16a-	.	16a-
4BB-	4e-	4e-	4e-
4BB-	4d	4d	4d
=46	=46	=46	=46
4E-	2e-	2e-	2e-
8G	.	.	.
8F	.	.	.
8E-	4r	4r	4r
8D	.	.	.
=47	=47	=47	=47
4C	4c	4ee-	2gg
4c	4cc	4ee-	.
4c	4cc	4ee-	8aa-
.	.	.	8gg
=48	=48	=48	=48
4c	4a	4dd	8gg
.	.	.	8ff#
4c	4a	4dd	2ff#
4c	4a	4dd	.
=49	=49	=49	=49
4B	4g	4dd	4ff
4B	4g	4dd	8ddd
.	.	.	8bb
4B	4g	4dd	8gg
.	.	.	8ff
=50	=50	=50	=50
4c	4g	8dd	8ff
.	.	8cc	8ee-
4C	4g	4cc	4ee-
4r	4r	4r	4r
=51	=51	=51	=51
2.r	4f	4dd	2.r
.	4f	4dd	.
.	4f	4dd	.
=52	=52	=52	=52
2F	2d	2b	4.aa-
.	.	.	8b
4E-	4e-	4g	4cc
=53	=53	=53	=53
2.r	4f	4dd	2.r
.	4f	4dd	.
.	4f	4dd	.
=54	=54	=54	=54
2F	2d	2b	4.aa-
.	.	.	8b
4E-	4e-	4g	4cc
=55	=55	=55	=55
4r	4r	4r	8.dd
.	.	.	16ee-
4G	4g	4e-	4cc
4GG	4G	4d	4b
=56	=56	=56	=56
4C	4c	2c	2cc
4GG	4G	.	.
4CC	4C	4r	4r
==	==	==	==
*-	*-	*-	*-
!!!RWG1: This file contains only pitch and duration data.
!!!RWG2: Transposing instruments are not transposed.
!!!RWG3: Spines may have incompatible meters.
!!!RWG4: Durations of rests and tied notes may be interpreted.
!!!RWG: Key is interpreted using the Humdrum key tool.
!!!GTL: 10 Divertimentos
!!!AFT: stage1
!!!END: 1997/04/15
!!!KEY: 2944083988
!!!EMD: Converted from MuseData to Humdrum Dec 16, 2000, by Andreas Kornstaedt using muse2kern.
!!!EMD: Manual editing by Craig Sapp, Nov 2001
